icon-themes/breeze_svg/cmd/32/outlinemode.svg

<svg viewBox="0 0 32 32" xmlns="http://www.w3.org/2000/svg"><path d="m4 5v7h7v-7zm1 1h5v5h-5zm8 0v1h15v-1zm0 3v1h9v-1zm11 0v1h4v-1zm-20 4v7h7v-7zm1 1h5v5h-5zm8 0v1h15v-1zm11.398438 2-5.111329 5.109375-3.287109 3.289063v3.601562h3.601562l8.398438-8.398438zm-11.398438 1v1h6v-1zm9.349609 2.490234 2.160157 2.160157-3.173828 3.175781v-.675781l-1.013672.023437h-1.03711v-1.037109l.001953-.583985 1.439453-1.441406zm-18.349609 1.509766v7h7v-7zm1 1h5v5h-5zm8 0v1h3v-1zm5.273438 1.564453v1.621094h2.027343l.021485.654297-1.080078 1.080078h-1.441407l-.720703-.720703v-1.441407zm-5.273438 1.435547v1h2v-1z" fill="#4d4d4d"/></svg>

<svg xmlns="http://www.w3.org/2000/svg" viewBox="0 0 32 32">
 <path 
     style="fill:#4d4d4d" 
     d="M 4 5 L 4 12 L 11 12 L 11 5 L 4 5 z M 5 6 L 10 6 L 10 11 L 5 11 L 5 6 z M 13 6 L 13 7 L 28 7 L 28 6 L 13 6 z M 13 9 L 13 10 L 22 10 L 22 9 L 13 9 z M 24 9 L 24 10 L 28 10 L 28 9 L 24 9 z M 4 13 L 4 20 L 11 20 L 11 13 L 4 13 z M 5 14 L 10 14 L 10 19 L 5 19 L 5 14 z M 13 14 L 13 15 L 28 15 L 28 14 L 13 14 z M 24.398438 16 L 19.287109 21.109375 L 16 24.398438 L 16 28 L 19.601562 28 L 28 19.601562 L 24.398438 16 z M 13 17 L 13 18 L 19 18 L 19 17 L 13 17 z M 22.349609 19.490234 L 24.509766 21.650391 L 21.335938 24.826172 L 21.335938 24.150391 L 20.322266 24.173828 L 19.285156 24.173828 L 19.285156 23.136719 L 19.287109 22.552734 L 20.726562 21.111328 L 22.349609 19.490234 z M 4 21 L 4 28 L 11 28 L 11 21 L 4 21 z M 5 22 L 10 22 L 10 27 L 5 27 L 5 22 z M 13 22 L 13 23 L 16 23 L 16 22 L 13 22 z M 18.273438 23.564453 L 18.273438 25.185547 L 20.300781 25.185547 L 20.322266 25.839844 L 19.242188 26.919922 L 17.800781 26.919922 L 17.080078 26.199219 L 17.080078 24.757812 L 18.273438 23.564453 z M 13 25 L 13 26 L 15 26 L 15 25 L 13 25 z "
     />
</svg>
